icons/heart-outline.svg

<svg xmlns="http://www.w3.org/2000/svg" width="24" height="24" viewBox="0 0 24 24">
  <path d="M15.743428,3.00652506 C14.548247,3.06738066 13.3833407,3.55328054 12.2530901,4.43776654 L12,4.643 L11.9885744,4.63339042 C10.7025431,3.55762826 9.37083838,3 8,3 C4.36504138,3 2,5.5339729 2,9.5 C2,12.146114 3.03093044,13.9406966 5.68695722,16.4590035 C6.86009417,17.5713111 8.77281911,19.0221484 11.4392487,20.8279843 C11.7779046,21.0573386 12.2220954,21.0573386 12.5607513,20.8279843 L13.3380831,20.296867 C15.60233,18.7353662 17.2572195,17.4600803 18.3130428,16.4590035 C20.9690696,13.9406966 22,12.146114 22,9.5 C22,5.5339729 19.6349586,3 16,3 L15.743428,3.00652506 Z M16,5 C18.4983747,5 20,6.60888424 20,9.5 C20,11.4955527 19.2330332,12.830643 16.9369572,15.0076632 L16.7697264,15.1636094 C15.851034,16.0068965 14.4499207,17.0862536 12.5735299,18.393347 L12,18.789 L11.8080831,18.6577997 C9.61733,17.1473005 8.03221953,15.9265863 7.06304278,15.0076632 C4.76696676,12.830643 4,11.4955527 4,9.5 C4,6.60888424 5.50162529,5 8,5 C9.03879609,5 10.1327768,5.54699035 11.2928932,6.70710678 C11.6834175,7.09763107 12.3165825,7.09763107 12.7071068,6.70710678 C13.8672232,5.54699035 14.9612039,5 16,5 Z"/>
</svg>

<svg xmlns="http://www.w3.org/2000/svg" viewBox="0 0 24 24">
  <path d="M15.74 3c-1.2.07-2.36.55-3.49 1.44l-.25.2h-.01A6.2 6.2 0 0 0 8 3C4.37 3 2 5.53 2 9.5c0 2.65 1.03 4.44 3.69 6.96a48.25 48.25 0 0 0 5.75 4.37 1 1 0 0 0 1.12 0l.78-.53a43.69 43.69 0 0 0 4.97-3.84C20.97 13.94 22 12.15 22 9.5 22 5.53 19.63 3 16 3h-.26zM16 5c2.5 0 4 1.6 4 4.5 0 2-.77 3.33-3.06 5.5l-.17.16c-.92.85-2.32 1.93-4.2 3.23l-.57.4-.2-.13A42.15 42.15 0 0 1 7.07 15C4.76 12.83 4 11.5 4 9.5 4 6.6 5.5 5 8 5c1.04 0 2.13.55 3.3 1.7a1 1 0 0 0 1.4 0C13.88 5.56 14.97 5 16 5z"/>
</svg>
